lib/preview_tmp/nrk-logo-nrk-2.svg

<svg width="47" height="24" viewBox="0 0 47 24" fill="none" xmlns="http://www.w3.org/2000/svg">
<path d="M0 17.9972V5.99825H3.93719V17.9972H0ZM9.29381 7.90794L11.5581 17.9972H7.24917L4.54549 5.99825H6.96218C7.51635 5.99106 8.05406 6.18641 8.4745 6.54755C8.89562 6.89354 9.18495 7.37386 9.29381 7.90794ZM12.1495 17.9972V5.99825H16.0867V17.9972H12.1495ZM19.0605 10.5613C18.6362 10.5654 18.2188 10.4544 17.8525 10.2401C17.4912 10.0313 17.1911 9.73112 16.9823 9.36976C16.7678 9.00349 16.6568 8.58592 16.661 8.16148C16.6561 7.73962 16.7672 7.32454 16.9823 6.96159C17.1933 6.60415 17.4931 6.30726 17.8525 6.09968C18.2189 5.88566 18.6362 5.77468 19.0605 5.77855C19.4822 5.774 19.8971 5.88509 20.2602 6.09968C20.616 6.30907 20.9127 6.60572 21.122 6.96159C21.3368 7.32464 21.4479 7.73966 21.4433 8.16148C21.4473 8.58589 21.3363 9.00339 21.122 9.36976C20.9149 9.72954 20.6179 10.0294 20.2602 10.2401C19.8971 10.4551 19.4819 10.5663 19.0599 10.5613H19.0605ZM22.0516 17.9972V5.99825H25.9892V17.9972H22.0516ZM30.9737 12.5554C30.9848 12.567 31.0693 12.705 31.2272 12.9694C31.3851 13.2338 31.5906 13.5718 31.8439 13.9835C32.0974 14.3949 32.3649 14.8314 32.6463 15.2932C32.9278 15.7549 33.1926 16.1915 33.4408 16.6029C33.6881 17.0144 33.9697 17.4791 34.2857 17.9972H29.9598C29.6893 17.5578 29.4441 17.1606 29.2245 16.8057C29.0048 16.4508 28.7713 16.0677 28.5238 15.6565C28.2758 15.2457 28.0306 14.8457 27.7882 14.4566C27.5458 14.0676 27.3375 13.7268 27.1633 13.4342C26.9883 13.1415 26.8671 12.9443 26.7997 12.8427C26.6325 12.5906 26.5336 12.2995 26.5127 11.9977C26.5294 11.7081 26.6226 11.4281 26.7828 11.1863C26.8504 11.0736 26.9743 10.8736 27.1545 10.5863C27.3348 10.299 27.546 9.95822 27.7882 9.56389C28.0304 9.16956 28.2756 8.76677 28.5238 8.35554C28.772 7.94431 29.0056 7.5584 29.2245 7.19787C29.4445 6.83771 29.6897 6.43775 29.9598 5.99798H34.2857L30.9396 11.4567C30.8361 11.6187 30.7777 11.8055 30.7706 11.9977C30.7818 12.1995 30.8522 12.3935 30.9731 12.5554H30.9737Z" fill="white"/>
<path d="M40.2627 16.5442C40.5302 16.3147 40.8053 16.0762 41.0959 15.8177C41.5014 15.4572 41.9097 15.0658 42.3209 14.6434C42.732 14.221 43.1234 13.7817 43.4952 13.3255C43.8562 12.8841 44.1864 12.4183 44.4836 11.9316C44.761 11.4792 44.9876 10.9976 45.1594 10.4955C45.319 10.0334 45.4018 9.54821 45.4044 9.05932C45.4125 8.60275 45.3202 8.14997 45.134 7.73299C44.9499 7.33917 44.6784 6.99249 44.3402 6.71924C43.9532 6.4127 43.5076 6.18846 43.0308 6.0603C42.4447 5.9001 41.8389 5.82331 41.2314 5.8322C40.8377 5.83116 40.4448 5.86508 40.0571 5.93358C39.6883 5.99877 39.3262 6.09774 38.9755 6.22925C38.6412 6.35454 38.3166 6.5042 38.0043 6.677L38.2237 8.14693C38.4913 7.96756 38.7775 7.81746 39.0772 7.6992C39.4027 7.56854 39.7391 7.46677 40.0825 7.39507C40.4324 7.32175 40.7891 7.28494 41.1466 7.28524C41.5213 7.27762 41.8948 7.32894 42.2536 7.43732C42.5392 7.52475 42.8018 7.67483 43.0221 7.87661C43.2206 8.06171 43.3738 8.29009 43.4698 8.54399C43.5682 8.81172 43.6169 9.09512 43.6137 9.38033C43.6079 9.85905 43.5104 10.3322 43.3265 10.7742C43.1127 11.2934 42.8406 11.7865 42.5155 12.2442C42.1368 12.7819 41.7249 13.2954 41.2821 13.7817C40.809 14.3055 40.2937 14.8293 39.7361 15.353C39.1785 15.8768 38.6013 16.409 38.0043 16.9497L38.2237 17.9972H45.5398L45.7426 16.5442H40.2627Z" fill="white"/>
</svg>

<svg xmlns="http://www.w3.org/2000/svg" viewBox="0 0 47 24" fill="currentColor"><path d="M0 17.997V5.998h3.937v12H0Zm9.294-10.09 2.264 10.09H7.25L4.545 5.998h2.417a2.276 2.276 0 0 1 1.513.55c.42.346.71.826.819 1.36Zm2.855 10.09V5.998h3.938v12h-3.938Zm6.912-7.436a2.381 2.381 0 0 1-2.078-1.192 2.345 2.345 0 0 1-.322-1.208 2.301 2.301 0 0 1 .321-1.2A2.41 2.41 0 0 1 20.26 6.1c.356.21.653.506.862.862.215.363.326.778.321 1.2a2.35 2.35 0 0 1-.321 1.208 2.4 2.4 0 0 1-.862.87 2.302 2.302 0 0 1-1.2.321Zm2.99 7.436V5.998h3.938v12h-3.937Zm8.923-5.442c.01.012.095.15.253.414.158.265.364.603.617 1.014a309.436 309.436 0 0 1 1.597 2.62c.247.411.529.876.845 1.394H29.96c-.27-.44-.516-.836-.736-1.191-.22-.355-.453-.738-.7-1.15-.248-.41-.493-.81-.736-1.2a60.12 60.12 0 0 1-.625-1.022 18.04 18.04 0 0 0-.363-.591 1.747 1.747 0 0 1-.287-.845c.016-.29.11-.57.27-.812.067-.112.191-.312.371-.6a182.106 182.106 0 0 0 1.37-2.23l.7-1.158.736-1.2h4.326l-3.346 5.459a1.079 1.079 0 0 0-.17.54c.012.203.082.396.203.558ZM40.263 16.544c.267-.23.542-.468.833-.726.405-.36.814-.752 1.225-1.175a20.05 20.05 0 0 0 1.174-1.318c.361-.44.691-.907.989-1.393.277-.453.504-.934.675-1.437.16-.462.243-.947.245-1.436a3.117 3.117 0 0 0-.27-1.326 2.86 2.86 0 0 0-.794-1.014 3.624 3.624 0 0 0-1.31-.659 6.466 6.466 0 0 0-1.799-.228 6.648 6.648 0 0 0-1.174.102 6.11 6.11 0 0 0-1.082.295 7.291 7.291 0 0 0-.97.448l.219 1.47c.267-.18.554-.33.853-.448a5.98 5.98 0 0 1 1.006-.304c.35-.073.706-.11 1.064-.11.374-.007.748.044 1.107.152.285.088.548.238.768.44.199.185.352.413.448.667.098.268.147.551.144.836a3.747 3.747 0 0 1-.287 1.394 7.412 7.412 0 0 1-.811 1.47c-.38.538-.791 1.051-1.234 1.538a26.86 26.86 0 0 1-1.546 1.571 129.48 129.48 0 0 1-1.732 1.597l.22 1.047h7.316l.203-1.453h-5.48Z"/></svg>
